packages/icons/raw/shadcn/vibrate-off.svg

<!-- @license lucide-static v1.23.0 - ISC -->
<svg
  class="lucide lucide-vibrate-off"
  xmlns="http://www.w3.org/2000/svg"
  width="24"
  height="24"
  viewBox="0 0 24 24"
  fill="none"
  stroke="currentColor"
  stroke-width="2"
  stroke-linecap="round"
  stroke-linejoin="round"
>
  <path d="m2 8 2 2-2 2 2 2-2 2" />
  <path d="m22 8-2 2 2 2-2 2 2 2" />
  <path d="M8 8v10c0 .55.45 1 1 1h6c.55 0 1-.45 1-1v-2" />
  <path d="M16 10.34V6c0-.55-.45-1-1-1h-4.34" />
  <line x1="2" x2="22" y1="2" y2="22" />
</svg>

<svg width="24" height="24" viewBox="0 0 24 24" fill="none" xmlns="http://www.w3.org/2000/svg">
<path d="M2 8L4 10L2 12L4 14L2 16" stroke="black" stroke-width="2" stroke-linecap="round" stroke-linejoin="round"/>
<path d="M22 8L20 10L22 12L20 14L22 16" stroke="black" stroke-width="2" stroke-linecap="round" stroke-linejoin="round"/>
<path d="M8 8V18C8 18.55 8.45 19 9 19H15C15.55 19 16 18.55 16 18V16" stroke="black" stroke-width="2" stroke-linecap="round" stroke-linejoin="round"/>
<path d="M16 10.34V6C16 5.45 15.55 5 15 5H10.66" stroke="black" stroke-width="2" stroke-linecap="round" stroke-linejoin="round"/>
<path d="M2 2L22 22" stroke="black" stroke-width="2" stroke-linecap="round" stroke-linejoin="round"/>
</svg>
